src/components/00-materials/images-raw/Productivity/Newspaper.svg

<svg xmlns="http://www.w3.org/2000/svg" viewBox="0 0 96 96"><g fill="none" stroke="#00008f" stroke-linecap="round" stroke-linejoin="round" stroke-width="2"><path d="M28 30V18a2 2 0 0 1 2-2h44a2 2 0 0 1 2 2v57a5 5 0 0 1-5 5H23"/><path d="M20 30h8v45a5 5 0 0 1-5 5 5 5 0 0 1-5-5V32a2 2 0 0 1 2-2zm16-6h32m-14 6h14m-14 6h14m-14 6h14M36 30h12v12H36zm0 18h32m-32 6h32m-14 6h14m-14 6h14m-14 6h14M36 60h12v12H36z"/></g></svg>

<svg xmlns="http://www.w3.org/2000/svg" viewBox="0 0 96 96"><defs><style>.cls-2{fill:none;stroke:#00008f;stroke-linecap:round;stroke-linejoin:round;stroke-width:2px}</style></defs><g id="Layer_2" ><g id="icons"><path class="cls-2" d="M28 30V18a2 2 0 0 1 2-2h44a2 2 0 0 1 2 2v57a5 5 0 0 1-5 5H23"/><path class="cls-2" d="M20 30h8v45a5 5 0 0 1-5 5 5 5 0 0 1-5-5V32a2 2 0 0 1 2-2zM36 24h32M54 30h14M54 36h14M54 42h14M36 30h12v12H36zM36 48h32M36 54h32M54 60h14M54 66h14M54 72h14M36 60h12v12H36z"/></g></g></svg>
